image/logoMarquee.svg

<svg fill="none" height="665" viewBox="0 0 41 665" width="41" xmlns="http://www.w3.org/2000/svg" xmlns:xlink="http://www.w3.org/1999/xlink"><clipPath id="a"><path d="m0 0h41v665h-41z"/></clipPath><g clip-path="url(#a)" fill="#ff4d00"><path d="m20.1931 402.797c-9.8572 0-15.74937-5.935-15.74937-15.444v-10.628h31.48657v10.628c0 9.522-5.88 15.444-15.7494 15.444zm0-3.895c7.6108 0 12.386-3.944 12.386-11.549v-6.905h-24.7719v6.905c0 7.617 4.7751 11.549 12.3859 11.549z"/><path d="m35.9303 411.655v3.723h-31.48657v-3.723z"/><path d="m20.1931 424.224c10.2132 0 16.4491 6.155 16.4491 14.559 0 6.193-3.2284 11.82-10.8392 13.417v-3.76c5.4871-1.412 7.4266-5.406 7.4266-9.644 0-6.377-4.8242-10.665-13.0488-10.665-8.2245 0-13.04876 4.288-13.04876 10.665 0 4.472 2.7006 9.079 8.75236 9.866v3.722c-8.22451-.798-12.16493-7.126-12.16493-13.588 0-8.404 6.23593-14.56 16.44913-14.56z"/><path d="m32.5791 481.196v-10.714h-28.13537v-3.845h28.13537v-10.714h3.3634v25.273z"/><path d="m35.9303 488.949v3.722h-31.48657v-3.722z"/><path d="m20.1931 501.518c9.7713 0 16.4491 5.934 16.4491 15.1 0 9.165-6.6778 15.087-16.4491 15.087-9.7712 0-16.44908-5.934-16.44908-15.087 0-9.154 6.67788-15.1 16.44908-15.1zm0 26.292c8.0036 0 13.0488-4.423 13.0488-11.192 0-6.77-5.0452-11.193-13.0488-11.193s-13.04878 4.423-13.04878 11.193c0 6.769 5.04518 11.192 13.04878 11.192z"/><path d="m35.9303 565.616h-31.48657v-4.509l16.22817-10.444c3.4003-2.175 7.6107-4.829 10.6551-6.549-6.1869.136-12.03.136-16.2773.136h-10.60597v-3.674h31.48657v4.509l-16.2282 10.443c-3.4003 2.175-7.6108 4.829-10.65508 6.549 6.18678-.135 12.02998-.135 16.27728-.135h10.6182v3.674z"/><path d="m13.6012 594.575v-14.339l-9.15747-3.624v-3.895l31.48657 12.569v4.165l-31.48657 12.753v-3.944l9.15747-3.673zm3.3635-1.327.3928-.172c3.4003-1.376 9.6853-3.846 14.5464-5.75-4.8611-1.819-11.1461-4.252-14.5955-5.628l-.356-.135v11.685z"/><path d="m4.44373 633.879v-3.846c1.01886-.713 2.51646-.971 4.1982-1.02l3.36347-.135c4.3823-.172 5.8799-1.855 5.8799-5.627v-10.271h-13.44157v-3.723h31.48657v13.318c0 6.193-2.9584 10.665-8.5806 10.665-4.1614 0-6.6287-2.212-7.6108-5.173-.8838 2.74-2.9215 4.116-6.1868 4.337l-5.08203.308c-1.41167.086-2.92155.393-4.02634 1.154zm22.68507-4.472c3.7562 0 5.438-2.703 5.438-6.819v-9.608h-11.318v10.05c0 3.673 1.9027 6.377 5.88 6.377z"/><path d="m35.9303 665-18.8429-12.041h-12.64367v-3.722h12.65597l18.8428-12.041v4.251l-7.3898 4.644c-2.7006 1.72-5.4012 3.404-8.1386 5.05 2.7374 1.634 5.4871 3.317 8.1877 5.05l7.3407 4.607v4.202z"/><path d="m.662872 194.862c0-3.883 0-7.753 0-11.635 0-1.106 0-1.118 1.092518-1.118h10.86381c.8715 0 1.7185.11 2.541.368 1.5344.492 2.5655 1.487 3.0566 3.023.0491.172.1104.344.1595.503.2087.652.2087.664.9084.664h2.4306c.4296 0 .6751-.135.7242-.577.0123-.123.0614-.246.0859-.369.4911-2.064 1.6327-3.133 3.7318-3.465.626-.098 1.2521-.16 1.8904-.16h9.7958.3805c.5647.037.6506.123.6752.688v.529 22.508c0 .844-.4133 1.266-1.2398 1.266-.712 0-1.4117 0-2.1237 0-.6997 0-.7611-.086-.7856-.799 0-.233 0-.454 0-.688 0-5.885 0-11.758 0-17.643 0-.737-.356-1.106-1.068-1.106-3.4125 0-6.8374 0-10.25 0-.1718 0-.356 0-.5278 0-.3928 0-.5401.197-.5401.565v.983 16.427c0 .852-.4379 1.282-1.3135 1.29-.6383 0-1.2644 0-1.9027 0-.6506-.024-.7488-.123-.7734-.749 0-.258 0-.504 0-.762 0-5.48 0-10.947 0-16.427 0-1.486.0246-1.314-1.3257-1.314-3.6704 0-7.34072 0-11.01108 0-.12275 0-.25778 0-.38054 0-.90838 0-.93293.024-.93293.933v18.553c0 .876-.42964 1.314-1.28892 1.314-.68743 0-1.36258 0-2.05 0-.699703-.012-.785631-.098-.785631-.811 0-2.15 0-4.312 0-6.462 0-1.855 0-3.698 0-5.554z"/><path d="m.662872 295.881c0-3.748 0-7.507 0-11.255 0-.172 0-.356 0-.528 0-.897.061377-.946.945208-.946h11.24432c.6138 0 1.2153.086 1.8045.221 1.8167.43 3.0566 1.499 3.609 3.33.3069 1.007.0859 1.032 1.3994 1.019.6874 0 1.3625-.012 2.05 0 .4296 0 .6506-.159.7119-.589.0737-.48.2087-.934.4051-1.389.4788-1.118 1.289-1.867 2.4551-2.211.8102-.246 1.6327-.381 2.4674-.381h10.3236c.8348 0 .8961.074.8961.921v23.123c0 .148 0 .307-.0122.455-.0246.295-.1596.479-.4788.479-1.0679 0-2.1236 0-3.1916 0-.3192 0-.4419-.209-.4542-.504 0-.258-.0123-.503-.0123-.761 0-5.836 0-11.66 0-17.496 0-.209 0-.406 0-.615 0-.823-.0368-.847-.8592-.86-3.5476 0-7.083 0-10.6306 0-.8838 0-.8961 0-.8961.897v16.968.762c0 .38-.1841.565-.5524.565-.9575 0-1.9272 0-2.8847 0-.3437 0-.5156-.172-.5279-.504-.0122-.258-.0122-.504-.0122-.762 0-5.295 0-10.603 0-15.898 0-.48-.0123-.959-.0246-1.45 0-.369-.1596-.578-.5524-.565-.1473 0-.3069 0-.4542 0-3.879 0-7.74577 0-11.62482 0-1.00658 0-1.01886 0-1.01886 1.019v18.479c0 .868-.43373 1.302-1.3012 1.302-.66287 0-1.31347 0-1.97634 0-.785631-.012-.847008-.073-.859283-.884 0-2.433 0-4.866 0-7.298 0-1.548 0-3.096 0-4.644z"/><path d="m35.5988 261.712c.0737-2.199-.1964-4.411-.7979-6.573-.4174-1.487-.6383-1.671-2.1973-1.769-.712-.05-1.4117-.05-2.1237.049-2.0131.27-3.4248 1.4-4.4682 3.084-.7611 1.228-1.338 2.555-1.8659 3.907-1.068 2.74-2.1236 5.479-3.2407 8.207-.712 1.745-1.6326 3.366-2.8725 4.804-1.9763 2.285-4.4314 3.194-7.4021 2.629-1.93948-.381-3.40026-1.499-4.4805-3.133-.19641-.295-.36826-.602-.54012-.921-.13503-.258-.33144-.418-.6015-.541-2.54101-1.13-4.087721-3.084-4.689219-5.787-.491018-2.224-.454191-4.423.319162-6.585.699697-1.966 1.988627-3.453 3.817667-4.448.47874-.258.78563-.565.98203-1.081.46647-1.192 1.12935-2.261 2.02545-3.182 1.43623-1.475 3.21613-2.163 5.21703-2.347.6384-.061.7734.061.7734.713.0123 1.339.0123 2.69 0 4.03 0 .663-.0982.712-.7856.663-2.1605-.147-4.29644 0-6.39555.565-.7488.209-1.12934.602-1.32574 1.364-.5524 2.199-.84701 4.423-.90839 6.684-.06137 2.334.0491 4.656.61378 6.942.17185.663.36826 1.314.62604 1.953.15958.381.41737.627.82246.713 2.34461.467 4.6401.417 6.776-.799.9698-.54 1.7186-1.339 2.3569-2.236 1.0066-1.413 1.6572-3.01 2.2833-4.62 1.0557-2.715 2.0131-5.467 3.167-8.146.6015-1.4 1.3381-2.727 2.2464-3.956.9575-1.29 2.136-2.297 3.7441-2.69 2.7128-.652 5.438.442 6.9233 2.924.577.97 1.2521 1.658 2.2464 2.224 1.5713.884 2.5901 2.322 3.1548 4.042.7365 2.224.7856 4.472.1596 6.733-.6138 2.248-1.9886 3.845-4.0877 4.816-.4542.209-.7243.491-.9207.934-.5647 1.314-1.338 2.494-2.3937 3.477-1.068 1.02-2.3446 1.572-3.7931 1.769-.5892.074-.7366-.037-.7488-.639-.0123-1.315-.0123-2.641 0-3.956 0-.799.1105-.885.8961-.811 1.7554.184 3.4739-.025 5.2048-.369.7733-.159 1.1539-.552 1.3503-1.302.626-2.396.982-4.816.9084-7.335z"/><path d="m38.9868 145.753v1.831c0 .688-.0614.762-.7488.934-2.1114.516-4.235 1.032-6.3464 1.548-7.4512 1.818-14.9024 3.624-22.35358 5.443-1.20299.295-2.40599.602-3.62125.86-.6015.123-.89611.393-1.00659 1.032-.27006 1.523-.28234 3.01.01227 4.533.11048.541.33144.774.84701.897 2.36916.553 4.72604 1.143 7.08294 1.72 3.9895.959 7.9668 1.929 11.9563 2.888 4.3823 1.056 8.7647 2.101 13.147 3.157.1718.037.3437.086.5156.123.3437.086.5032.307.5032.664 0 1.314.0123 2.641 0 3.956 0 .565-.1473.651-.7242.516-1.7186-.43-3.4371-.872-5.1557-1.315-7.2302-1.867-14.4605-3.735-21.6907-5.59-3.04432-.774-5.18025-2.556-6.26049-5.541-.1473-.393-.36826-.639-.78563-.725-.61377-.135-1.22754-.307-1.84131-.455-.41737-.11-.82246-.245-1.203-.454-.896106-.479-1.3011959-1.229-1.276645-2.236.0245509-1.008.552395-1.659 1.399405-2.089.61377-.307 1.28892-.455 1.95179-.627.09821-.024.19641-.061.29461-.073.89611-.086 1.37485-.553 1.71857-1.426.95748-2.481 2.83562-4.042 5.3521-4.804 1.8659-.565 3.7686-1.007 5.6467-1.499 7.1811-1.867 14.35-3.722 21.5311-5.59 1.0557-.27 1.0557-.27 1.068.811v1.524z"/><path d="m23.9862 245.42c-9.4275 0-16.95237-7.666-16.95237-17.52s7.52487-17.594 16.95237-17.594c9.4276 0 17.0138 7.667 17.0138 17.594s-7.5249 17.52-17.0138 17.52zm0-3.735c7.6599 0 13.5767-5.983 13.5767-13.797s-5.9045-13.859-13.5767-13.859c-7.6721 0-13.4293 5.983-13.4293 13.859 0 7.875 5.8308 13.797 13.4293 13.797zm-6.1132-6.683c-1.1907.073-1.829.282-2.6023.847v-3.661c.6383-.492 1.473-.639 2.6023-.7l1.8291-.136c1.9027-.135 2.5287-.638 2.5287-2.395v-4.362h-6.9601v-3.514h17.9344v7.814c0 3.944-1.8291 6.401-5.1312 6.401-1.6817 0-3.302-.7-4.1491-2.604-.6383 1.474-1.829 2.039-3.5107 2.113l-2.5288.209zm7.3776-6.058c0 1.684.9084 2.679 2.3937 2.679 1.6204 0 2.3937-.983 2.3937-2.888v-4.152h-4.7874z"/><path d="m39.0728 44.0712h-38.225792v-10.21h10.839192c6.3955 0 11.7599.0492 17.8854.3195-2.7866-.7003-5.2662-1.3392-8.4824-2.2607l-20.242192-5.5289v-8.711l20.242192-5.5412c3.2162-.9092 5.6958-1.5603 8.4824-2.26066-6.1255.27026-11.4899.31946-17.8854.31946h-10.839192v-10.1977h38.225792v16.4515l-14.4974 3.649c-2.6269.6389-5.4748 1.3392-8.2122 1.929 2.7374.5897 5.5853 1.29 8.2122 1.9289l14.4974 3.6491v16.4514z"/><path d="m39.0728 49.9933v10.7506h-38.225792v-10.7506z"/><path d="m39.0728 101.313h-38.225792v-11.3398l13.588892-8.1213c3.3881-1.9904 6.1746-3.6491 9.4521-5.2709-5.6958.2212-10.7901.2703-16.80506.2703h-6.235932v-10.2099h38.225792v11.3403l-13.589 8.1213c-2.6269 1.5603-6.1745 3.5999-9.5012 5.2708 5.6958-.2211 10.8515-.2703 16.8665-.2703h6.2237z"/><path d="m29.5225 138.406v-11.291h-28.675492v-10.751h28.675492v-11.291h9.5625v33.321h-9.5625z"/><path d="m24.8332 353.885h2.8602v-2.863h-2.8602z"/><path d="m27.6811 351.022h2.8602v-2.863h-2.8602z"/><path d="m21.9731 356.76h2.8601v-2.863h-2.8601z"/><path d="m19.1129 359.61h2.8602v-2.863h-2.8602z"/><path d="m16.265 356.76h2.8602v-2.863h-2.8602z"/><path d="m13.3925 353.885h2.8602v-2.863h-2.8602z"/><path d="m10.5323 351.022h2.8602v-2.863h-2.8602z"/><path d="m24.8332 340.714h2.8602v-2.863h-2.8602z"/><path d="m27.6811 337.851h2.8602v-2.863h-2.8602z"/><path d="m21.9731 343.564h2.8601v-2.863h-2.8601z"/><path d="m19.1129 346.427h2.8602v-2.863h-2.8602z"/><path d="m16.265 343.564h2.8602v-2.863h-2.8602z"/><path d="m13.3925 340.714h2.8602v-2.863h-2.8602z"/><path d="m10.5323 337.851h2.8602v-2.863h-2.8602z"/><path d="m24.8332 327.53h2.8602v-2.863h-2.8602z"/><path d="m27.6811 324.68h2.8602v-2.863h-2.8602z"/><path d="m21.9731 330.393h2.8601v-2.863h-2.8601z"/><path d="m19.1129 333.256h2.8602v-2.863h-2.8602z"/><path d="m16.265 330.393h2.8602v-2.863h-2.8602z"/><path d="m13.3925 327.53h2.8602v-2.863h-2.8602z"/><path d="m10.5323 324.68h2.8602v-2.863h-2.8602z"/></g></svg>

<svg width="41" height="665" viewBox="0 0 41 665" fill="none" xmlns="http://www.w3.org/2000/svg">
<g clip-path="url(#clip0_194_7067)">
<path d="M20.1931 402.797C10.3359 402.797 4.44373 396.862 4.44373 387.353V376.725H35.9303V387.353C35.9303 396.875 30.0503 402.797 20.1809 402.797H20.1931ZM20.1931 398.902C27.8039 398.902 32.5791 394.958 32.5791 387.353V380.448H7.8072V387.353C7.8072 394.97 12.5823 398.902 20.1931 398.902Z" fill="#FF4D00"/>
<path d="M35.9303 411.655V415.378H4.44373V411.655H35.9303Z" fill="#FF4D00"/>
<path d="M20.1931 424.224C30.4063 424.224 36.6422 430.379 36.6422 438.783C36.6422 444.976 33.4138 450.603 25.803 452.2V448.44C31.2901 447.028 33.2296 443.034 33.2296 438.796C33.2296 432.419 28.4054 428.131 20.1808 428.131C11.9563 428.131 7.13204 432.419 7.13204 438.796C7.13204 443.268 9.83264 447.875 15.8844 448.662V452.384C7.65989 451.586 3.71947 445.258 3.71947 438.796C3.71947 430.392 9.9554 424.236 20.1686 424.236L20.1931 424.224Z" fill="#FF4D00"/>
<path d="M32.5791 481.196V470.482H4.44373V466.637H32.5791V455.923H35.9425V481.196H32.5791Z" fill="#FF4D00"/>
<path d="M35.9303 488.949V492.671H4.44373V488.949H35.9303Z" fill="#FF4D00"/>
<path d="M20.1931 501.518C29.9644 501.518 36.6422 507.452 36.6422 516.618C36.6422 525.783 29.9644 531.705 20.1931 531.705C10.4219 531.705 3.74402 525.771 3.74402 516.618C3.74402 507.464 10.4219 501.518 20.1931 501.518ZM20.1931 527.81C28.1967 527.81 33.2419 523.387 33.2419 516.618C33.2419 509.848 28.1967 505.425 20.1931 505.425C12.1895 505.425 7.14432 509.848 7.14432 516.618C7.14432 523.387 12.1895 527.81 20.1931 527.81Z" fill="#FF4D00"/>
<path d="M35.9303 565.616H4.44373V561.107L20.6719 550.663C24.0722 548.488 28.2826 545.834 31.327 544.114C25.1401 544.25 19.297 544.25 15.0497 544.25H4.44373V540.576H35.9303V545.085L19.7021 555.528C16.3018 557.703 12.0913 560.357 9.04702 562.077C15.2338 561.942 21.077 561.942 25.3243 561.942H35.9425V565.616H35.9303Z" fill="#FF4D00"/>
<path d="M13.6012 594.575V580.236L4.44373 576.612V572.717L35.9303 585.286V589.451L4.44373 602.204V598.26L13.6012 594.587V594.575ZM16.9647 593.248L17.3575 593.076C20.7578 591.7 27.0428 589.23 31.9039 587.326C27.0428 585.507 20.7578 583.074 17.3084 581.698L16.9524 581.563V593.248H16.9647Z" fill="#FF4D00"/>
<path d="M4.44373 633.879V630.033C5.46259 629.32 6.96019 629.062 8.64193 629.013L12.0054 628.878C16.3877 628.706 17.8853 627.023 17.8853 623.251V612.98H4.44373V609.257H35.9303V622.575C35.9303 628.768 32.9719 633.24 27.3497 633.24C23.1883 633.24 20.721 631.028 19.7389 628.067C18.8551 630.807 16.8174 632.183 13.5521 632.404L8.47007 632.712C7.0584 632.798 5.54852 633.105 4.44373 633.866V633.879ZM27.1288 629.407C30.885 629.407 32.5668 626.704 32.5668 622.588V612.98H21.2488V623.03C21.2488 626.703 23.1515 629.407 27.1288 629.407Z" fill="#FF4D00"/>
<path d="M35.9303 665L17.0874 652.959H4.44373V649.237H17.0997L35.9425 637.196V641.447L28.5527 646.091C25.8521 647.811 23.1515 649.495 20.4141 651.141C23.1515 652.775 25.9012 654.458 28.6018 656.191L35.9425 660.798V665H35.9303Z" fill="#FF4D00"/>
<path d="M0.662872 194.862C0.662872 190.979 0.662872 187.109 0.662872 183.227C0.662872 182.121 0.662872 182.109 1.75539 182.109C5.37664 182.109 8.9979 182.109 12.6192 182.109C13.4907 182.109 14.3377 182.219 15.1602 182.477C16.6946 182.969 17.7257 183.964 18.2168 185.5C18.2659 185.672 18.3272 185.844 18.3763 186.003C18.585 186.655 18.585 186.667 19.2847 186.667C20.0949 186.667 20.9051 186.667 21.7153 186.667C22.1449 186.667 22.3904 186.532 22.4395 186.09C22.4518 185.967 22.5009 185.844 22.5254 185.721C23.0165 183.657 24.1581 182.588 26.2572 182.256C26.8832 182.158 27.5093 182.096 28.1476 182.096C31.4129 182.096 34.6781 182.096 37.9434 182.096C38.0662 182.096 38.2012 182.096 38.3239 182.096C38.8886 182.133 38.9745 182.219 38.9991 182.784C38.9991 182.956 38.9991 183.141 38.9991 183.313C38.9991 190.82 38.9991 198.314 38.9991 205.821C38.9991 206.665 38.5858 207.087 37.7593 207.087C37.0473 207.087 36.3476 207.087 35.6356 207.087C34.9359 207.087 34.8745 207.001 34.85 206.288C34.85 206.055 34.85 205.834 34.85 205.6C34.85 199.715 34.85 193.842 34.85 187.957C34.85 187.22 34.494 186.851 33.782 186.851C30.3695 186.851 26.9446 186.851 23.532 186.851C23.3602 186.851 23.176 186.851 23.0042 186.851C22.6114 186.851 22.4641 187.048 22.4641 187.416C22.4641 187.748 22.4641 188.08 22.4641 188.399C22.4641 193.879 22.4641 199.346 22.4641 204.826C22.4641 205.678 22.0262 206.108 21.1506 206.116C20.5123 206.116 19.8862 206.116 19.2479 206.116C18.5973 206.092 18.4991 205.993 18.4745 205.367C18.4745 205.109 18.4745 204.863 18.4745 204.605C18.4745 199.125 18.4745 193.658 18.4745 188.178C18.4745 186.692 18.4991 186.864 17.1488 186.864C13.4784 186.864 9.80808 186.864 6.13772 186.864C6.01497 186.864 5.87994 186.864 5.75718 186.864C4.8488 186.864 4.82425 186.888 4.82425 187.797C4.82425 193.977 4.82425 200.17 4.82425 206.35C4.82425 207.226 4.39461 207.664 3.53533 207.664C2.8479 207.664 2.17275 207.664 1.48533 207.664C0.785627 207.652 0.699699 207.566 0.699699 206.853C0.699699 204.703 0.699699 202.541 0.699699 200.391C0.699699 198.536 0.699699 196.693 0.699699 194.837L0.662872 194.862Z" fill="#FF4D00"/>
<path d="M0.662872 295.881C0.662872 292.133 0.662872 288.374 0.662872 284.626C0.662872 284.454 0.662872 284.27 0.662872 284.098C0.662872 283.201 0.724249 283.152 1.60808 283.152C5.35209 283.152 9.09611 283.152 12.8524 283.152C13.4662 283.152 14.0677 283.238 14.6569 283.373C16.4736 283.803 17.7135 284.872 18.2659 286.703C18.5728 287.71 18.3518 287.735 19.6653 287.722C20.3527 287.722 21.0278 287.71 21.7153 287.722C22.1449 287.722 22.3659 287.563 22.4272 287.133C22.5009 286.653 22.6359 286.199 22.8323 285.744C23.3111 284.626 24.1213 283.877 25.2874 283.533C26.0976 283.287 26.9201 283.152 27.7548 283.152C31.1919 283.152 34.6413 283.152 38.0784 283.152C38.9132 283.152 38.9745 283.226 38.9745 284.073C38.9745 291.777 38.9745 299.493 38.9745 307.196C38.9745 307.344 38.9745 307.503 38.9623 307.651C38.9377 307.946 38.8027 308.13 38.4835 308.13C37.4156 308.13 36.3599 308.13 35.2919 308.13C34.9727 308.13 34.85 307.921 34.8377 307.626C34.8377 307.368 34.8254 307.123 34.8254 306.865C34.8254 301.029 34.8254 295.205 34.8254 289.369C34.8254 289.16 34.8254 288.963 34.8254 288.754C34.8254 287.931 34.7886 287.907 33.9662 287.894C30.4186 287.894 26.8832 287.894 23.3356 287.894C22.4518 287.894 22.4395 287.894 22.4395 288.791C22.4395 294.443 22.4395 300.095 22.4395 305.759C22.4395 306.017 22.4395 306.263 22.4395 306.521C22.4395 306.901 22.2554 307.086 21.8871 307.086C20.9296 307.086 19.9599 307.086 19.0024 307.086C18.6587 307.086 18.4868 306.914 18.4745 306.582C18.4623 306.324 18.4623 306.078 18.4623 305.82C18.4623 300.525 18.4623 295.217 18.4623 289.922C18.4623 289.442 18.45 288.963 18.4377 288.472C18.4377 288.103 18.2781 287.894 17.8853 287.907C17.738 287.907 17.5784 287.907 17.4311 287.907C13.5521 287.907 9.68533 287.907 5.80628 287.907C4.7997 287.907 4.78742 287.907 4.78742 288.926C4.78742 295.082 4.78742 301.25 4.78742 307.405C4.78742 308.273 4.35369 308.707 3.48622 308.707C2.82335 308.707 2.17275 308.707 1.50988 308.707C0.724249 308.695 0.662872 308.634 0.650597 307.823C0.650597 305.39 0.650597 302.957 0.650597 300.525C0.650597 298.977 0.650597 297.429 0.650597 295.881H0.662872Z" fill="#FF4D00"/>
<path d="M35.5988 261.712C35.6725 259.513 35.4024 257.301 34.8009 255.139C34.3835 253.652 34.1626 253.468 32.6036 253.37C31.8916 253.32 31.1919 253.32 30.4799 253.419C28.4668 253.689 27.0551 254.819 26.0117 256.503C25.2506 257.731 24.6737 259.058 24.1458 260.41C23.0778 263.15 22.0222 265.889 20.9051 268.617C20.1931 270.362 19.2725 271.983 18.0326 273.421C16.0563 275.706 13.6012 276.615 10.6305 276.05C8.69102 275.669 7.23024 274.551 6.15 272.917C5.95359 272.622 5.78174 272.315 5.60988 271.996C5.47485 271.738 5.27844 271.578 5.00838 271.455C2.46737 270.325 0.920659 268.371 0.319161 265.668C-0.171857 263.444 -0.13503 261.245 0.638323 259.083C1.33802 257.117 2.62695 255.63 4.45599 254.635C4.93473 254.377 5.24162 254.07 5.43802 253.554C5.90449 252.362 6.56737 251.293 7.46347 250.372C8.8997 248.897 10.6796 248.209 12.6805 248.025C13.3189 247.964 13.4539 248.086 13.4539 248.738C13.4662 250.077 13.4662 251.428 13.4539 252.768C13.4539 253.431 13.3557 253.48 12.6683 253.431C10.5078 253.284 8.37186 253.431 6.27275 253.996C5.52395 254.205 5.14341 254.598 4.94701 255.36C4.39461 257.559 4.1 259.783 4.03862 262.044C3.97725 264.378 4.08772 266.7 4.6524 268.986C4.82425 269.649 5.02066 270.3 5.27844 270.939C5.43802 271.32 5.69581 271.566 6.1009 271.652C8.44551 272.119 10.741 272.069 12.8769 270.853C13.8467 270.313 14.5955 269.514 15.2338 268.617C16.2404 267.204 16.891 265.607 17.5171 263.997C18.5728 261.282 19.5302 258.53 20.6841 255.851C21.2856 254.451 22.0222 253.124 22.9305 251.895C23.888 250.605 25.0665 249.598 26.6746 249.205C29.3874 248.553 32.1126 249.647 33.5979 252.129C34.1749 253.099 34.85 253.787 35.8443 254.353C37.4156 255.237 38.4344 256.675 38.9991 258.395C39.7356 260.619 39.7847 262.867 39.1587 265.128C38.5449 267.376 37.1701 268.973 35.071 269.944C34.6168 270.153 34.3467 270.435 34.1503 270.878C33.5856 272.192 32.8123 273.372 31.7566 274.355C30.6886 275.375 29.412 275.927 27.9635 276.124C27.3743 276.198 27.2269 276.087 27.2147 275.485C27.2024 274.17 27.2024 272.844 27.2147 271.529C27.2147 270.73 27.3252 270.644 28.1108 270.718C29.8662 270.902 31.5847 270.693 33.3156 270.349C34.0889 270.19 34.4695 269.797 34.6659 269.047C35.2919 266.651 35.6479 264.231 35.5743 261.712H35.5988Z" fill="#FF4D00"/>
<path d="M38.9868 145.753C38.9868 146.368 38.9868 146.97 38.9868 147.584C38.9868 148.272 38.9254 148.346 38.238 148.518C36.1266 149.034 34.003 149.55 31.8916 150.066C24.4404 151.884 16.9892 153.69 9.53802 155.509C8.33503 155.804 7.13203 156.111 5.91677 156.369C5.31527 156.492 5.02066 156.762 4.91018 157.401C4.64012 158.924 4.62784 160.411 4.92245 161.934C5.03293 162.475 5.25389 162.708 5.76946 162.831C8.13862 163.384 10.4955 163.974 12.8524 164.551C16.8419 165.51 20.8192 166.48 24.8087 167.439C29.191 168.495 33.5734 169.54 37.9557 170.596C38.1275 170.633 38.2994 170.682 38.4713 170.719C38.815 170.805 38.9745 171.026 38.9745 171.383C38.9745 172.697 38.9868 174.024 38.9745 175.339C38.9745 175.904 38.8272 175.99 38.2503 175.855C36.5317 175.425 34.8132 174.983 33.0946 174.54C25.8644 172.673 18.6341 170.805 11.4039 168.95C8.35958 168.176 6.22365 166.394 5.14341 163.409C4.99611 163.016 4.77515 162.77 4.35778 162.684C3.74401 162.549 3.13024 162.377 2.51647 162.229C2.0991 162.119 1.69401 161.984 1.31347 161.775C0.417364 161.296 0.0122741 160.546 0.036825 159.539C0.0613759 158.531 0.58922 157.88 1.43623 157.45C2.05 157.143 2.72515 156.995 3.38802 156.823C3.48623 156.799 3.58443 156.762 3.68263 156.75C4.57874 156.664 5.05748 156.197 5.4012 155.324C6.35868 152.843 8.23682 151.282 10.7533 150.52C12.6192 149.955 14.5219 149.513 16.4 149.021C23.5811 147.154 30.75 145.299 37.9311 143.431C38.9868 143.161 38.9868 143.161 38.9991 144.242C38.9991 144.746 38.9991 145.262 38.9991 145.766L38.9868 145.753Z" fill="#FF4D00"/>
<path d="M23.9862 245.42C14.5587 245.42 7.03383 237.754 7.03383 227.9C7.03383 218.046 14.5587 210.306 23.9862 210.306C33.4138 210.306 41 217.973 41 227.9C41 237.827 33.4751 245.42 23.9862 245.42ZM23.9862 241.685C31.6461 241.685 37.5629 235.702 37.5629 227.888C37.5629 220.074 31.6584 214.029 23.9862 214.029C16.3141 214.029 10.5569 220.012 10.5569 227.888C10.5569 235.763 16.3877 241.685 23.9862 241.685ZM17.873 235.002C16.6823 235.075 16.044 235.284 15.2707 235.849V232.188C15.909 231.696 16.7437 231.549 17.873 231.488L19.7021 231.352C21.6048 231.217 22.2308 230.714 22.2308 228.957V224.595H15.2707V221.081H33.2051V228.895C33.2051 232.839 31.376 235.296 28.0739 235.296C26.3922 235.296 24.7719 234.596 23.9248 232.692C23.2865 234.166 22.0958 234.731 20.4141 234.805L17.8853 235.014L17.873 235.002ZM25.2506 228.944C25.2506 230.628 26.159 231.623 27.6443 231.623C29.2647 231.623 30.038 230.64 30.038 228.735V224.583H25.2506V228.944Z" fill="#FF4D00"/>
<path d="M39.0728 44.0712H0.847008V33.8612H11.6862C18.0817 33.8612 23.4461 33.9104 29.5716 34.1807C26.785 33.4804 24.3054 32.8415 21.0892 31.92L0.847008 26.3911V17.6801L21.0892 12.1389C24.3054 11.2297 26.785 10.5786 29.5716 9.87824C23.4461 10.1485 18.0817 10.1977 11.6862 10.1977H0.847008V0H39.0728V16.4515L24.5754 20.1005C21.9485 20.7394 19.1006 21.4397 16.3632 22.0295C19.1006 22.6192 21.9485 23.3195 24.5754 23.9584L39.0728 27.6075V44.0589V44.0712Z" fill="#FF4D00"/>
<path d="M39.0728 49.9933V60.7439H0.847008V49.9933H39.0728Z" fill="#FF4D00"/>
<path d="M39.0728 101.313H0.847008V89.9732L14.4359 81.8519C17.824 79.8615 20.6105 78.2028 23.888 76.581C18.1922 76.8022 13.0979 76.8513 7.08294 76.8513H0.847008V66.6414H39.0728V77.9817L25.4838 86.103C22.8569 87.6633 19.3093 89.7029 15.9826 91.3738C21.6784 91.1527 26.8341 91.1035 32.8491 91.1035H39.0728V101.313Z" fill="#FF4D00"/>
<path d="M29.5225 138.406V127.115H0.847008V116.364H29.5225V105.073H39.085V138.394H29.5225V138.406Z" fill="#FF4D00"/>
<path d="M24.8332 353.885H27.6934V351.022H24.8332V353.885Z" fill="#FF4D00"/>
<path d="M27.6811 351.022H30.5413V348.159H27.6811V351.022Z" fill="#FF4D00"/>
<path d="M21.9731 356.76H24.8332V353.897H21.9731V356.76Z" fill="#FF4D00"/>
<path d="M19.1129 359.61H21.9731V356.747H19.1129V359.61Z" fill="#FF4D00"/>
<path d="M16.265 356.76H19.1252V353.897H16.265V356.76Z" fill="#FF4D00"/>
<path d="M13.3925 353.885H16.2527V351.022H13.3925V353.885Z" fill="#FF4D00"/>
<path d="M10.5323 351.022H13.3925V348.159H10.5323V351.022Z" fill="#FF4D00"/>
<path d="M24.8332 340.714H27.6934V337.851H24.8332V340.714Z" fill="#FF4D00"/>
<path d="M27.6811 337.851H30.5413V334.988H27.6811V337.851Z" fill="#FF4D00"/>
<path d="M21.9731 343.564H24.8332V340.701H21.9731V343.564Z" fill="#FF4D00"/>
<path d="M19.1129 346.427H21.9731V343.564H19.1129V346.427Z" fill="#FF4D00"/>
<path d="M16.265 343.564H19.1252V340.701H16.265V343.564Z" fill="#FF4D00"/>
<path d="M13.3925 340.714H16.2527V337.851H13.3925V340.714Z" fill="#FF4D00"/>
<path d="M10.5323 337.851H13.3925V334.988H10.5323V337.851Z" fill="#FF4D00"/>
<path d="M24.8332 327.53H27.6934V324.667H24.8332V327.53Z" fill="#FF4D00"/>
<path d="M27.6811 324.68H30.5413V321.817H27.6811V324.68Z" fill="#FF4D00"/>
<path d="M21.9731 330.393H24.8332V327.53H21.9731V330.393Z" fill="#FF4D00"/>
<path d="M19.1129 333.256H21.9731V330.393H19.1129V333.256Z" fill="#FF4D00"/>
<path d="M16.265 330.393H19.1252V327.53H16.265V330.393Z" fill="#FF4D00"/>
<path d="M13.3925 327.53H16.2527V324.667H13.3925V327.53Z" fill="#FF4D00"/>
<path d="M10.5323 324.68H13.3925V321.817H10.5323V324.68Z" fill="#FF4D00"/>
</g>
<defs>
<clipPath id="clip0_194_7067">
<rect width="41" height="665" fill="white"/>
</clipPath>
</defs>
</svg>
